svg/Outline/resize.svg

<svg viewBox="0 0 24 24" xmlns="http://www.w3.org/2000/svg" width="24" height="24"><path d="M20.5 1.01q.42 0 .74.02.33.01.73.19.55.28.83.83l.08.2q.1.28.11.53.02.33.02.73v6.59a.9.9 0 0 1-1.8-.1V4.07L4.1 21.2h6a.9.9 0 0 1 0 1.79H3.5l-.73-.01a2 2 0 0 1-.73-.2 2 2 0 0 1-.83-.82l-.09-.2a2 2 0 0 1-.1-.53Q1 20.89 1 20.49V13.9a.9.9 0 0 1 1.8.1v5.93L19.92 2.8h-6a.9.9 0 0 1 0-1.8h6.59"/></svg>

<svg viewBox="0 0 24 24" xmlns="http://www.w3.org/2000/svg" width="24" height="24"><path d="M20.5 1.01Q20.92 1.01 21.24 1.03Q21.57 1.04 21.97 1.22Q22.52 1.5 22.8 2.05L22.88 2.25Q22.98 2.53 22.99 2.78Q23.01 3.11 23.01 3.51L23.01 10.1A.9 .9 0 0 1 21.21 10L21.21 4.07L4.1 21.2L10.1 21.2A.9 .9 0 0 1 10.1 22.99L2.77 22.98A2 2 0 0 1 2.04 22.78A2 2 0 0 1 1.21 21.96L1.12 21.76A2 2 0 0 1 1.02 21.23Q1 20.89 1 20.49L1 13.9A.9 .9 0 0 1 2.8 14L2.8 19.93L19.92 2.8L13.92 2.8A.9 .9 0 0 1 13.92 1L20.51 1"/></svg>
